!!! OTL: Literature27
!!! Chapter: 5
!!! Section: I
!!! Page: 350
!!! Mode: 
!!! Encoder: DJB
**kern
*staff1
*I"Piano
=1-
*clefF4
*k[b-]
*F:
*M3/4
4F\
4F\
4F\
=2
4.F\
8E\
4F\
=3
4G\
4F\
4G\
=4
4A\
4F\
4r
=5
4A\
4A\
4A\
=6
4.A\
8G\
4A\
=7
4B-\
4A\
4B-\
=8
4c\
4A\
4r
=9
4c\
4A\
4d\
=10
4B-\
4G\
4c\
=11
4A\
4F\
4B-\
=12
!!linebreak:original
4G\
4r
4r
=13
4G\
4G\
4G\
=14
4.A\
8B-\
4c\
=15
4G\
4F\
4G\
=16
4A\
4c\
4r
=17
4G\
4F\
4G\
=18
4A\
4f\
4r
=19
4G\
4F\
4G\
=20
4F\
2r
==
*-
